build/category/WebhookSolid.svg

<svg xmlns="http://www.w3.org/2000/svg" fill="none" viewBox="0 0 24 24" focusable="false"><path d="M0 0H24V24H0z" transform="matrix(1 0 0 -1 0 24)"/><path fill="#74767B" fill-rule="evenodd" d="M8.02833 17.4012C9.14822 17.4012 10.0561 16.4933 10.0561 15.3734C10.0561 14.8559 9.86222 14.3837 9.54319 14.0255L10.385 12.5837C10.6565 12.1185 10.4793 11.5661 10.0865 11.2981C8.66914 10.3312 8.2161 8.41855 9.08823 6.90797C10.0029 5.32372 12.0287 4.78092 13.6129 5.69559C14.6003 6.26566 15.1837 7.26701 15.261 8.32697C15.2871 8.68501 15.5985 8.9541 15.9565 8.92802C16.3145 8.90193 16.5836 8.59053 16.5575 8.2325C16.4503 6.76121 15.6391 5.36428 14.2629 4.56975C12.0569 3.2961 9.23605 4.05194 7.9624 6.25798C6.79953 8.27212 7.32835 10.7982 9.10813 12.1923L8.4134 13.3822C8.28873 13.3582 8.15999 13.3457 8.02833 13.3457C6.90844 13.3457 6.00059 14.2535 6.00059 15.3734C6.00059 16.4933 6.90844 17.4012 8.02833 17.4012ZM13.567 9.88067C13.8549 9.53056 14.0277 9.08225 14.0277 8.59357C14.0277 7.47368 13.1199 6.56583 12 6.56583C10.8801 6.56583 9.97227 7.47368 9.97227 8.59357C9.97227 9.71346 10.8801 10.6213 12 10.6213C12.1592 10.6213 12.3142 10.603 12.4629 10.5682L13.2935 12.0034C13.5622 12.4675 14.1267 12.5881 14.5534 12.3825C16.0998 11.6375 17.9835 12.2014 18.8559 13.7124C19.7706 15.2967 19.2278 17.3224 17.6435 18.2371C16.6561 18.8072 15.4972 18.8118 14.5406 18.3487C14.2175 18.1922 13.8288 18.3274 13.6724 18.6505C13.5159 18.9736 13.6511 19.3623 13.9742 19.5188C15.3019 20.1616 16.9174 20.1575 18.2935 19.3629C20.4995 18.0893 21.2554 15.2684 19.9817 13.0624C18.8182 11.0472 16.3642 10.2423 14.2663 11.0889L13.567 9.88067ZM6.3436 11.7589C6.54521 12.056 6.46786 12.4602 6.17084 12.6618C5.2915 13.2587 4.71602 14.2646 4.71602 15.4048C4.71602 17.2341 6.19899 18.7171 8.02833 18.7171C9.773 18.7171 11.2031 17.3678 11.3313 15.6562C11.3667 15.1835 11.7539 14.7548 12.2906 14.7548L14.0115 14.7548C14.2731 13.9374 15.039 13.3457 15.9431 13.3457C17.063 13.3457 17.9709 14.2535 17.9709 15.3734C17.9709 16.4933 17.063 17.4012 15.9431 17.4012C15.0623 17.4012 14.3126 16.8395 14.0327 16.0548L12.5951 16.0548C12.279 18.2946 10.3551 20.0171 8.02833 20.0171C5.48102 20.0171 3.41602 17.9521 3.41602 15.4048C3.41602 13.8157 4.22017 12.4147 5.44074 11.5862C5.73777 11.3846 6.14199 11.4619 6.3436 11.7589Z"/></svg>

<svg xmlns="http://www.w3.org/2000/svg" fill="none" viewBox="0 0 24 24" focusable="false"><path fill="#74767B" fill-rule="evenodd" d="M8.02 17.4a2.031 2.031 0 0 0 1.52-3.38l.84-1.44a.98.98 0 0 0-.3-1.29 3.31 3.31 0 0 1-1-4.39 3.326 3.326 0 0 1 4.53-1.21c.99.57 1.57 1.57 1.65 2.63.02.36.33.63.69.6.36-.02.63-.33.6-.69-.1-1.47-.92-2.87-2.29-3.67a4.619 4.619 0 0 0-5.16 7.63l-.69 1.19c-.13-.03-.26-.04-.39-.04-1.12 0-2.02.91-2.02 2.03s.9 2.03 2.02 2.03m5.54-7.52c.29-.35.46-.8.46-1.29 0-1.12-.91-2.03-2.02-2.03-1.12 0-2.03.91-2.03 2.03s.91 2.03 2.03 2.03c.15 0 .31-.02.46-.06l.83 1.44c.27.46.83.58 1.26.38 1.54-.75 3.43-.18 4.3 1.33.92 1.58.37 3.61-1.21 4.52-.99.57-2.15.58-3.1.11a.65.65 0 0 0-.87.31c-.16.32-.02.71.3.86 1.33.65 2.94.64 4.32-.15 2.2-1.28 2.96-4.1 1.69-6.3a4.625 4.625 0 0 0-5.72-1.98zm-7.39 2.78c.29-.2.37-.61.17-.91a.655.655 0 0 0-.9-.17 4.62 4.62 0 0 0-2.03 3.82c0 2.55 2.07 4.61 4.61 4.61 2.33 0 4.25-1.72 4.57-3.96h1.44c.28.78 1.03 1.35 1.91 1.35 1.12 0 2.03-.91 2.03-2.03s-.91-2.03-2.03-2.03c-.91 0-1.67.59-1.93 1.41h-1.72c-.54 0-.93.43-.96.9a3.317 3.317 0 0 1-3.31 3.06 3.308 3.308 0 0 1-1.85-6.05"/></svg>
